X: 134
T: REEL: Golden Stud
C: C: Maurice Lennon; S: Sergey Kuvin; Stockton's Wing
C: Set Leaders: Oliushka, Anton
Z: [Unedited]; Yoann at The Session
N: https://thesession.org/members/26966/sets/95966
R: Reel
M: 4/4
L: 1/8
Q: 1/2=100
K: Emin
|:E2 EG F2 FA|G2GB ABcA|BAGB AGFA|GEFD EDB,D|
E2 EG F2 FA|G2 GB ABcA|BAGB AGFA|1 GEFD E2ED:|2 GEFD EFGB||
|:c2cB cBAc|B2BA BAGB|A2AB AGFA|GEFD EFGB|
c2cB cBAc|B2BA BAGB|A2AB AGFA|1 GEFD E4:|2 GEFD E2ED||

